X:1
T:6 Songs, Op.7
T:Anklänge
T:3. Anklänge
T:Johannes Brahms
T:J.v. Eichendorff
T:6 Songs, Op.7
T:Creative Commons copyright waiver (CC0 1.0 Universal) 
T:Creative Commons copyright waiver (CC0 1.0 Universal) 
C:Johannes Brahms
Z:J.v Eichenforff
Z:Creative Commons copyright waiver (CC0 1.0 Universal)
Z:
%%score 1 { 2 | ( 3 4 ) }
L:1/8
Q:1/4=76
M:3/4
K:C
V:1 treble nm="Singstimme\nVoice"
V:2 treble nm="Pianoforte"
V:3 bass 
V:4 bass 
V:1
"^Andante moderato" z6 | z2 z2!p! c2 |"^mezza voce e legato\n" c4 B2 | d4 c2 | (e4 d2) | f2 z2 e2 | %6
w: |Hoch|ü- ber|stil- len|Hö- *|hen stand|
 d4 c2 | B4 A2 | B4 z2 | z2 z2 E2 | c4 B2 | d4 c2 | (e4 d2) | f2 z2 e2 | d4 c2 | B4 A2 | G4 z2 | %17
w: in dem|Wald ein|Haus;|so|ein- sam|wars zu|se- *|hen dort|ü- bern|Wald hin-|aus.|
 z2 z2 G2 | ^G4 G2 | B4 B2 | e6 | B4!p! B2 | =G4 G2 | B4 B2 | e4 z2 | z2 z2 B2 | e4 d2 | c4 B2 | %28
w: Ein|Mä- chen|sass dar-|in-|nen bei|stil- ler|A- bend-|zeit,|tät|seid- ne|Fä- den|
 A6 | E2 z2 G2 |"^cresc." c4 d2 | e4 f2 |!f! g6 | z2 z2!f! c2 | c4 B2 | d4 c2 | (e4 d2) | %37
w: spin-|nen zu|ih- rem|Hoch- zeits-|kleid,|tät|seid- ne|Fä- den|spin- *|
 f2 z2 e2 |"^dim." d4 c2 | B4 A2 |!p!!>(! A6- |[Q:1/4=60] A6-!>)! |!pp! A4 z2 | !fermata!z6 |] %44
w: nen zu|ih- rem|Hoch- zeits-|kleid.|_|||
V:2
!pp! (.[Ee] .[Ee]2 .[Ee]2 [Ee]- |"_mezza voce" .[Ee]) (.[Ee]2 .[Ee]2 [Ece]- | %2
 .[Ece]) (.[Ece]2 .[Ece]2 [EBe]- | .[EBe]) (.[Ede]2 .[Ede]2 [Ece]- | %4
 .[Ece]) (.[Ee]2 .[Ee]2 [Ede]- | .[Ede]) (.[Eef]2 .[Eef]2 [Ee]- | .[Ee]) [Ede]2!>(! [Ede]2 [Ece]- | %7
 [Ece] [EBe]2 [EBe]2 [EAe]-!>)! | [EAe] [E^Ge]2 [EGe]2 [EBe]- | [EBe] [Ee]2 [Ee]2 [Ede]- | %10
 [Ede] [Ece]2 [Ece]2 [EBe]- | [EBe] [Ede]2 [Ede]2 [Ece]- | [Ece] [Ee]2 [Ee]2 [Ede]- | %13
 [Ede] [Eef]2 [Eef]2 [Ee]- | [Ee] [Ede]2 [Ede]2 [Ece]- | [Ece] [EBe]2 [EBe]2 [EAe]- | %16
 [EAe] [EGe]2 [EGe]2 [EGe]- | [EGe] [EGe]2 [EGe]2 [EGe] | z [^Ge]2 [Ge]2 [Ge]- | %19
!<(! [Ge] [B^f]2 [Bf]2 [Bf]- | [Bf]!<)! [^gb]2 [gb]2 [eg]- | [eg]!>(! [B^f]2 [Bf]2 [Bf]- | %22
 [Bf]!>)!!pp! [=Ge]2 [Ge]2 [Ge]- | [Ge] [B^f]2!<(! [Bf]2 [Bf]- | [Bf]!<)! [gb]2!>(! [gb]2 [eg]- | %25
 [eg] [B^f]2 [Bf]2 [Bf]-!>)! | [Bf] [Gce]2 [Gce]2 [GBd]- | [GBd] [EAc]2 [EAc]2 [EGB]- | %28
 [EGB] [CFA]2 [CFA]2 [DFA]- | [DFA] [EAe]2 [EAe]2 [DFB]- | [DFB] [CFc]2 [CFc]2 [FGd]- | %31
 [FGd] [EGe]2 [EGe]2 [GBf]- | [GBf] [Gcg]2!<(! [Gcg]2 [Gcg]- | %33
 [Gcg] [^Gce^g]2 [Gceg]2 [Gceg]-!<)! | [Gceg] [Acea]2 [Aca]2 [ABa]- | [ABa] [Ada]2 [Ada]2 [Aca]- | %36
 [Aca] [Aea]2 [Aea]2 [Ada]- | [Ada] [Afa]2 [Afa]2 [Aea]- | [Aea] [Ada]2 [Ada]2 [Aca]- | %39
 [Aca] [ABa]2 [ABa]2 [Aa]- | [Aa] [Aa]2 [Aa]2 [Aa]- | [Aa] [Afa]2 [Afa]2 [Afa]- | %42
 [Afa] [Aea]2 [Aea]2 [A^ca]- | [Aca] [Aa]- !fermata![Aa]4 |] %44
V:3
 z6 | z2 z2"_sempre legato" [A,,C,]2 | [A,,C,]4 [G,,B,,]2 |!<(! [B,,D,]4 [A,,C,]2 | %4
 [C,E,]4 [B,,D,]2!<)! |!mp! [D,F,]4 [C,E,]2 | [B,,D,]4 [A,,C,]2 | [G,,B,,]4 [F,,A,,]2 | %8
!pp!!<(! (^G,,4 B,,2!<)! |!mp!!>(! E,4 D,2)!>)! |!pp! [A,,C,]4 [=G,,B,,]2 | [B,,D,]4 [A,,C,]2 | %12
 [C,E,]4 [B,,D,]2 | [D,F,]4 [C,E,]2 | [B,,D,]4 [A,,C,]2 | [G,,B,,]4 [F,,A,,]2 |!<(! (G,,4 ^G,,2 | %17
 A,,4!<)!!mp! ^A,,2) |!pp!!ped! [B,,,B,,]4 [^G,E]2!ped-up! | [B,^G]4 [B,G]2 | %20
[K:treble] [^GB]4 [EG]2 | [B,^F]4 z2 |[K:bass]!ped! [B,,,B,,]4[K:treble] [=G,E]2!ped-up! | %23
 [B,^F]4 [B,F]2 | [GB]4 [EG]2 | [B,^F]4 z2 |[K:bass]!pp!!ped! [C,,C,]2 ([CE]2 [G,D]2)!ped-up! | %27
!ped! [A,,,A,,]2 ([A,C]2 [E,B,]2)!ped-up! |!ped! [F,,C,]2 [F,A,]2- [D,F,A,]2!ped-up! | %29
!ped! [C,,C,]2 [E,A,C]2!ped-up! [G,,,G,,]2 |"^cresc." [A,,,A,,]4 [B,,,B,,]2 | [C,,C,]4 [D,,D,]2 | %32
 [E,,E,]6 | [C,,C,]6 |!mf! [A,,,A,,]2 [C,E,]2 [B,,D,]2 | [D,F,]4 [C,E,]2 | [E,G,]4 [D,F,]2 | %37
 [F,A,]4 [E,G,]2 |"^dim. sempre" [D,F,]4 [C,E,]2 | [B,,D,]4 [A,,C,]2 | [F,,A,,]6 | %41
"^rit." [D,,A,,]6 |!pp! [A,,,E,,A,,]6 | !fermata![A,^CE]6 |] %44
V:4
 x6 | x6 | x6 | x6 | x6 | x6 | x6 | x6 | E,,6 | E,,6 | x6 | x6 | x6 | x6 | x6 | x6 | C,,6 | C,,6 | %18
 x6 | x6 |[K:treble] x6 | x6 |[K:bass] x4[K:treble] x2 | x6 | x6 | x6 |[K:bass] x6 | x6 | x6 | x6 | %30
 x6 | x6 | x6 | x6 | x2 A,,2 A,,2 | A,,2 A,,2 A,,2 | A,,2 A,,2 A,,2 | A,,2 A,,2 A,,2 | %38
 A,,2 A,,2 A,,2 | A,,2 A,,2 A,,2 | x6 | x6 | x6 | x6 |] %44

